**harm	**harte	**timestamp	**phrase	**leadinstrument	**kern
*M4/4	*M4/4	*	*	*	*
*A:	*A:	*	*	*	*A:
1r;	N	0	.	r	1r;
=1	=1	=1	=1	=1	=1
*>A_chorus	*>A_chorus	*>A_chorus	*>A_chorus	*>A_chorus	*>A_chorus
1V7	E:7	3.675	newline	voice	1E 1g# 1b 1dd
=2	=2	=2	=2	=2	=2
1V7	E:7	6.151	.	voice	1E 1g# 1b 1dd
=3	=3	=3	=3	=3	=3
1I	A:maj	8.626	.	voice	1A 1cc# 1ee
=4	=4	=4	=4	=4	=4
1I	A:maj	11.102	.	voice	1A 1cc# 1ee
=5	=5	=5	=5	=5	=5
1II7	B:7	13.578	newline	voice	1B 1dd# 1ff# 1aa
=6	=6	=6	=6	=6	=6
1II7	B:7	16.066	.	voice	1B 1dd# 1ff# 1aa
=7	=7	=7	=7	=7	=7
1V7	E:7	18.555	.	voice	1E 1g# 1b 1dd
=8	=8	=8	=8	=8	=8
2V7	E:7	21.044	.	voice	2E 2g# 2b 2dd
2Im7	A:7	22.289	.	voice	2A 2cc# 2ee 2gg#
=9	=9	=9	=9	=9	=9
1IV	D:maj	23.533	newline	voice	1D 1f# 1a
=10	=10	=10	=10	=10	=10
1IV	D:maj	25.993	.	voice	1D 1f# 1a
=11	=11	=11	=11	=11	=11
1I	A:maj	28.453	.	voice	1A 1cc# 1ee
=12	=12	=12	=12	=12	=12
1I	A:maj	30.913	.	voice	1A 1cc# 1ee
=13	=13	=13	=13	=13	=13
1ii	B:min	33.373	newline	voice	1B 1dd 1ff#
=14	=14	=14	=14	=14	=14
1V	E:maj	35.861	.	voice	1E 1g# 1b
=15	=15	=15	=15	=15	=15
2I	A:maj	38.349	.	voice	2A 2cc# 2ee
2IV	D:maj	39.593	.	voice	2D 2f# 2a
=16	=16	=16	=16	=16	=16
1I	A:maj	40.837	.	voice	1A 1cc# 1ee
=17	=17	=17	=17	=17	=17
*>A2_chorus	*>A2_chorus	*>A2_chorus	*>A2_chorus	*>A2_chorus	*>A2_chorus
1V7	E:7	43.325	newline	voice	1E 1g# 1b 1dd
=18	=18	=18	=18	=18	=18
1V7	E:7	45.807	.	voice	1E 1g# 1b 1dd
=19	=19	=19	=19	=19	=19
1I	A:maj	48.289	.	voice	1A 1cc# 1ee
=20	=20	=20	=20	=20	=20
1I	A:maj	50.771	.	voice	1A 1cc# 1ee
=21	=21	=21	=21	=21	=21
1II7	B:7	53.252	newline	voice	1B 1dd# 1ff# 1aa
=22	=22	=22	=22	=22	=22
1II7	B:7	55.718	.	voice	1B 1dd# 1ff# 1aa
=23	=23	=23	=23	=23	=23
1V7	E:7	58.183	.	voice	1E 1g# 1b 1dd
=24	=24	=24	=24	=24	=24
2V7	E:7	60.649	.	voice	2E 2g# 2b 2dd
2Im7	A:7	61.882	.	voice	2A 2cc# 2ee 2gg#
=25	=25	=25	=25	=25	=25
1IV	D:maj	63.114	newline	voice	1D 1f# 1a
=26	=26	=26	=26	=26	=26
1IV	D:maj	65.597	.	voice	1D 1f# 1a
=27	=27	=27	=27	=27	=27
1I	A:maj	68.08	.	voice	1A 1cc# 1ee
=28	=28	=28	=28	=28	=28
1I	A:maj	70.563	.	voice	1A 1cc# 1ee
=29	=29	=29	=29	=29	=29
1ii	B:min	73.046	newline	voice	1B 1dd 1ff#
=30	=30	=30	=30	=30	=30
1V	E:maj	75.51	.	voice	1E 1g# 1b
=31	=31	=31	=31	=31	=31
1I	A:maj	77.974	.	voice	1A 1cc# 1ee
=32	=32	=32	=32	=32	=32
1-VIm7	F:7	80.438	.	voice	1F 1a 1cc 1ee
=33	=33	=33	=33	=33	=33
*>A3_chorus	*>A3_chorus	*>A3_chorus	*>A3_chorus	*>A3_chorus	*>A3_chorus
*B-:	*B-:	*	*	*	*B-:
1V7	F:7	82.902	newline	voice	1F 1a 1cc 1ee-
=34	=34	=34	=34	=34	=34
1V7	F:7	85.379	.	voice	1F 1a 1cc 1ee-
=35	=35	=35	=35	=35	=35
1I	B-:maj	87.856	.	voice	1B- 1dd 1ff
=36	=36	=36	=36	=36	=36
1I	B-:maj	90.333	.	voice	1B- 1dd 1ff
=37	=37	=37	=37	=37	=37
1II7	C:7	92.811	newline	voice	1C 1e 1g 1b-
=38	=38	=38	=38	=38	=38
1II7	C:7	95.253	.	voice	1C 1e 1g 1b-
=39	=39	=39	=39	=39	=39
1V7	F:7	97.694	.	voice	1F 1a 1cc 1ee-
=40	=40	=40	=40	=40	=40
2V7	F:7	100.136	.	voice	2F 2a 2cc 2ee-
2Im7	B-:7	101.357	.	voice	2B- 2dd 2ff 2aa
=41	=41	=41	=41	=41	=41
1IV	E-:maj	102.578	newline	voice	1E- 1g 1b-
=42	=42	=42	=42	=42	=42
1IV	E-:maj	105.036	.	voice	1E- 1g 1b-
=43	=43	=43	=43	=43	=43
1I	B-:maj	107.494	.	voice	1B- 1dd 1ff
=44	=44	=44	=44	=44	=44
2I	B-:maj	109.952	.	voice	2B- 2dd 2ff
2vi	G:min	111.181	.	voice	2G 2b- 2dd
=45	=45	=45	=45	=45	=45
1ii	C:min	112.41	newline	voice	1C 1e- 1g
=46	=46	=46	=46	=46	=46
1V	F:maj	114.872	.	voice	1F 1a 1cc
=47	=47	=47	=47	=47	=47
2I	B-:maj	117.334	.	voice	2B- 2dd 2ff
2IV	E-:maj	118.565	.	voice	2E- 2g 2b-
=48	=48	=48	=48	=48	=48
1I	B-:maj	119.796	.	voice	1B- 1dd 1ff
=49	=49	=49	=49	=49	=49
*>A4_chorus	*>A4_chorus	*>A4_chorus	*>A4_chorus	*>A4_chorus	*>A4_chorus
1V7	F:7	122.258	newline	voice	1F 1a 1cc 1ee-
=50	=50	=50	=50	=50	=50
1V7	F:7	124.691	.	voice	1F 1a 1cc 1ee-
=51	=51	=51	=51	=51	=51
1I	B-:maj	127.123	.	voice	1B- 1dd 1ff
=52	=52	=52	=52	=52	=52
1I	B-:maj	129.555	.	voice	1B- 1dd 1ff
=53	=53	=53	=53	=53	=53
1II7	C:7	131.988	newline	voice	1C 1e 1g 1b-
=54	=54	=54	=54	=54	=54
1II7	C:7	134.433	.	voice	1C 1e 1g 1b-
=55	=55	=55	=55	=55	=55
1V7	F:7	136.878	.	voice	1F 1a 1cc 1ee-
=56	=56	=56	=56	=56	=56
2V7	F:7	139.323	.	voice	2F 2a 2cc 2ee-
2Im7	B-:7	140.545	.	voice	2B- 2dd 2ff 2aa
=57	=57	=57	=57	=57	=57
1IV	E-:maj	141.768	newline	voice	1E- 1g 1b-
=58	=58	=58	=58	=58	=58
1IV	E-:maj	144.235	.	voice	1E- 1g 1b-
=59	=59	=59	=59	=59	=59
1I	B-:maj	146.702	.	voice	1B- 1dd 1ff
=60	=60	=60	=60	=60	=60
2I	B-:maj	149.169	.	voice	2B- 2dd 2ff
2vi	G:min	150.402	.	voice	2G 2b- 2dd
=61	=61	=61	=61	=61	=61
1ii	C:min	151.636	newline	voice	1C 1e- 1g
=62	=62	=62	=62	=62	=62
1V7	F:13	153.885	.	voice	1F 1a 1cc 1ee-
1r;	N	156.134	.	r	1r;
=63	=63	=63	=63	=63	=63
*>_outro	*>_outro	*>_outro	*>_outro	*>_outro	*>_outro
2I	B-:maj	158.383	newline	voice	2B- 2dd 2ff
2IVm7	E-:7	159.523	.	voice	2E- 2g 2b- 2dd
=64	=64	=64	=64	=64	=64
1I	B-:maj	160.662	.	voice	1B- 1dd 1ff
1r;	N	166.074	.	r	1r;
1r;	N	168.98	.	r	1r;
*-	*-	*-	*-	*-	*-
!!!OTL: Ramblin' Rose
!!!COC: Nat King Cole
!!!BillboardChartDate: 1962/11/17
!!!BillboardPeak: 2
!!!BillboardWeeksOnChart: 16
!!!SampleTargetRank: 62
!!!SampleActualRank: 61
!!!SampleID#: 0220
!!!RDF**harmony: **recip + pitch class of root + harmonic quality
!!!RDF**harte: Chris Harte's syntax, used by MIREX
!!!RDF**phrase: newline = linebreak in original McGill transcription
!!!RDF**timestamp: McGill audio timestamp in seconds
!!!RDF**leadinstrument: original McGill primary instrumentation annotation
!!!RDT: 2017/01/12/
!!!ENC: Nathaniel Condit-Schultz
!!!EST: Awating manual error checking and editing.
